src/img/channel/channel_48.svg

<svg fill="none" height="53" viewBox="0 0 138 53" width="138" xmlns="http://www.w3.org/2000/svg"><path d="m50.328 13.8436v21.9842h-8.8424v-21.9842h-7.7087v-7.74643h24.2643v7.74643z" fill="#fff"/><path d="m90.6689 20.6773v15.1507h-4.7619v-3.889c-2.8599 2.9232-6.8557 4.7404-11.271 4.7404-8.6992 0-15.7527-7.0349-15.7527-15.7157 0-8.6804 7.0535-15.71785 15.7527-15.71785 5.0539 0 9.5532 2.3774 12.4353 6.07175l-6.7508 5.2099c-1.3215-1.6836-3.3767-2.6838-5.6845-2.6838-3.9866 0-7.2197 3.1437-7.2197 7.1204 0 3.9785 3.2327 7.1181 7.2197 7.1181 2.2916 0 4.279-.9842 5.602-2.6208h-3.8577v-4.7841z" fill="#fff"/><path d="m5.22266 6.11938h13.98294c4.5203 0 7.6461 1.18852 9.6324 3.18295 1.7315 1.73987 2.6198 4.03217 2.6198 7.04597 0 4.1413-2.0028 7.4934-5.1431 9.2436.277.4621 6.114 10.2363 6.114 10.2363h-9.4626l-4.615-7.7468-4.9324.0007v7.7461h-8.19604zm13.82194 14.55342c2.6766 0 4.2172-1.3032 4.2172-3.4623 0-2.2401-1.6217-3.3809-4.2569-3.3809h-5.5862v6.8432z" fill="#fff"/><path d="m122.697 17.5888c-.66-.5147-1.342-.7067-2.45-.7067h-1.79v8.1553h2.045c1.235 0 2.003-.2572 2.579-.8988.639-.7071 1.002-1.8412 1.002-3.1674 0-1.5208-.491-2.6978-1.386-3.3824z" fill="#3cbfef"/><path d="m95.6138 6.12061v29.67699h37.1632v-29.67699zm17.1742 21.97789h-3.706v-5.8881h-4.838v5.8878h-3.707v-14.277h3.707v5.181h4.838v-5.181h3.706zm13.041-1.6484c-1.213 1.1781-2.642 1.6484-5.029 1.6484h-6.052v-14.2773h6.074c2.13 0 3.665.4925 4.878 1.5833 1.387 1.2633 2.154 3.19 2.154 5.4375 0 2.4607-.662 4.2808-2.025 5.6081z" fill="#3cbfef"/><g fill="#fff"><path d="m35.4479 41.2925h-1.7008v6.3207h1.7008z"/><path d="m45.2974 41.2925h1.6496l3.2191 3.8157v-3.8157h1.6493v6.3207h-1.6493l-3.2191-3.6554v3.6554h-1.6496z"/><path d="m57.7441 47.6132h1.6486v-4.801h2.4669v-1.5197h-6.5305v1.5197h2.415z"/><path d="m76.3271 41.2925h1.8464l1.9406 4.8595h.1672l1.9348-4.8595h1.8452l-2.787 6.3207h-2.1535z"/><path d="m91.7593 41.2925h1.7005v4.821h4.1715v1.4997h-5.872z"/><path d="m84.8804 41.2925h5.6263v1.5293h-3.9778v.8866h3.6051v1.4438h-3.6051v.9332h4.1553v1.5278h-5.8038z"/><path d="m117.944 41.2925h-1.7v6.3207h1.7z"/><path d="m122.737 47.6132c1.742-.084 3.155-1.5045 3.155-3.1981 0-1.694-1.402-3.0149-3.155-3.1226h-3.488v6.3207zm0-1.493h-1.868v-3.3332h1.868c.879-.0037 1.571.803 1.571 1.637s-.678 1.6706-1.571 1.6962z"/><path d="m107.549 43.8552h-3.166v1.3942h1.578v.5673c-.071.041-.155.0902-.241.1395-.242.1335-.775.3171-1.473.3171-1.152 0-1.942-.6605-1.942-1.8516 0-1.1823.907-1.8298 2.013-1.8298.671 0 1.44.3304 1.851.9561l1.293-.7796c-.923-1.3239-1.875-1.6725-3.416-1.6573-1.861.0159-3.286 1.358-3.358 3.2292-.081 2.2142 1.569 3.3642 3.604 3.4134 1.344.0296 2.05-.5883 2.05-.5883l.222.4481h.986v-3.7583z"/><path d="m42.0849 46.7103.3776.9024h1.759l-2.6327-6.3207h-2.4496l-2.6172 6.3207h1.759l.3768-.9024zm-1.8179-3.9053h.1926l1.0493 2.5214h-2.2736z"/><path d="m5.22266 47.6131h1.63935v-1.3328h1.97894l.73367 1.3328h1.78928l-.9532-1.7028s.6799-.4822.8898-.8999c.2103-.4193.3043-.9495.2265-1.6884-.0784-.7371-.8169-1.684-1.69345-1.8842-.58341-.1295-.91857-.1465-1.04085-.1473h-3.57004zm1.63935-2.8865v-1.892h2.08722c.55063 0 .96387.3586.94767.978-.01547.5839-.47071.8895-.94767.9143h-2.08722z"/><path d="m62.9341 47.6132h1.6393v-1.3313h1.979l.734 1.3313h1.7871l-.9525-1.7028s.6821-.4814.8902-.8984c.2107-.4208.305-.951.2276-1.6888-.0806-.7379-.8191-1.6833-1.6957-1.8827-.5823-.1314-.7848-.148-1.0397-.148h-3.5693zm1.6393-2.8865v-1.8905h2.0862c.5521 0 .9646.3593.948.978-.0151.5824-.4718.888-.9466.9128h-2.0876z"/><path d="m75.3085 46.7102.3767.904h1.7591l-2.6334-6.3207h-2.4482l-2.6176 6.3207h1.7591l.3764-.904zm-1.8177-3.903h.1934l1.0467 2.521h-2.2735z"/><path d="m111.794 47.7535c-1.569-.0093-3.032-1.0546-3.169-2.7434v-3.7176h1.7v3.7587c.031.7467.654 1.2821 1.46 1.2884.806-.0066 1.426-.5421 1.456-1.2884v-3.7587h1.702v3.7176c-.136 1.6888-1.58 2.7338-3.149 2.7434z"/><path d="m126.962 41.2925h5.625v1.5293h-3.975v.8866h3.603v1.4438h-3.603v.9332h4.154v1.5278h-5.804z"/><path d="m15.7979 47.7535c-1.5687-.0093-3.0331-1.0546-3.169-2.7434v-3.7176h1.6987v3.7587c.0338.7467.6544 1.2821 1.4596 1.2884.8062-.0066 1.4264-.5421 1.46-1.2884v-3.7587h1.6994v3.7176c-.1352 1.6888-1.5805 2.7338-3.1487 2.7434z"/><path d="m25.8045 42.1233-.7392 1.2263s-.7897-.7486-2.2187-.7486c-1.032 0-1.2147.326-1.2147.5181 0 .1783.1403.316.481.3489.5643.0555 2.3068.229 2.8007.4862.4968.2546 1.0213.7234 1.0213 1.6636 0 .9662-.5388 2.1351-3.0176 2.1351-2.0036 0-3.0106-1.0753-3.0106-1.0753l.7197-1.3073s1.0843.9487 2.3996.9487c1.3137 0 1.436-.4717 1.436-.7256 0-.3186-.7112-.3678-1.4474-.4248-.6033-.0477-1.2254-.1206-1.47-.1957-1.1591-.36-1.3937-1.0509-1.3937-1.775 0-.8622.4457-2.0858 2.7241-2.0858 2.0353 0 2.9295 1.0112 2.9295 1.0112z"/><path d="m32.5438 42.1233-.7396 1.2263s-.7904-.7486-2.2198-.7486c-1.0317 0-1.214.326-1.214.5181 0 .1783.14.316.481.3489.5632.0555 2.3053.229 2.8018.4862.4946.2546 1.0184.7234 1.0184 1.6636 0 .9662-.5381 2.1351-3.0161 2.1351-2.0036 0-3.0095-1.0753-3.0095-1.0753l.7193-1.3073s1.0847.9487 2.3988.9487c1.3138 0 1.4361-.4717 1.4361-.7256 0-.3186-.7127-.3678-1.4471-.4248-.6044-.0477-1.2269-.1206-1.4689-.1957-1.1587-.36-1.3933-1.0509-1.3933-1.775 0-.8622.4446-2.0858 2.7222-2.0858 2.0364 0 2.9307 1.0112 2.9307 1.0112z"/></g></svg>

<svg width="138" height="53" viewBox="0 0 138 53" fill="none" xmlns="http://www.w3.org/2000/svg">
<path d="M50.328 13.8436V35.8278H41.4856V13.8436H33.7769V6.09717H58.0412V13.8436H50.328Z" fill="white"/>
<path d="M90.6689 20.6773V35.828H85.907V31.939C83.0471 34.8622 79.0513 36.6794 74.636 36.6794C65.9368 36.6794 58.8833 29.6445 58.8833 20.9637C58.8833 12.2833 65.9368 5.24585 74.636 5.24585C79.6899 5.24585 84.1892 7.62325 87.0713 11.3176L80.3205 16.5275C78.999 14.8439 76.9438 13.8437 74.636 13.8437C70.6494 13.8437 67.4163 16.9874 67.4163 20.9641C67.4163 24.9426 70.649 28.0822 74.636 28.0822C76.9276 28.0822 78.915 27.098 80.238 25.4614H76.3803V20.6773H90.6689Z" fill="white"/>
<path d="M5.22266 6.11938H19.2056C23.7259 6.11938 26.8517 7.3079 28.838 9.30233C30.5695 11.0422 31.4578 13.3345 31.4578 16.3483C31.4578 20.4896 29.455 23.8417 26.3147 25.5919C26.5917 26.054 32.4287 35.8282 32.4287 35.8282H22.9661L18.3511 28.0814L13.4187 28.0821V35.8282H5.22266V6.11938ZM19.0446 20.6728C21.7212 20.6728 23.2618 19.3696 23.2618 17.2105C23.2618 14.9704 21.6401 13.8296 19.0049 13.8296H13.4187V20.6728H19.0446Z" fill="white"/>
<path d="M122.697 17.5888C122.037 17.0741 121.355 16.8821 120.247 16.8821H118.457V25.0374H120.502C121.737 25.0374 122.505 24.7802 123.081 24.1386C123.72 23.4315 124.083 22.2974 124.083 20.9712C124.083 19.4504 123.592 18.2734 122.697 17.5888Z" fill="#3CBFEF"/>
<path d="M95.6138 6.12061V35.7976H132.777V6.12061H95.6138ZM112.788 28.0985H109.082V22.2104H104.244V28.0982H100.537V13.8212H104.244V19.0022H109.082V13.8212H112.788V28.0985ZM125.829 26.4501C124.616 27.6282 123.187 28.0985 120.8 28.0985H114.748V13.8212H120.822C122.952 13.8212 124.487 14.3137 125.7 15.4045C127.087 16.6678 127.854 18.5945 127.854 20.842C127.854 23.3027 127.192 25.1228 125.829 26.4501Z" fill="#3CBFEF"/>
<path d="M35.4479 41.2925H33.7471V47.6132H35.4479V41.2925Z" fill="white"/>
<path d="M45.2974 41.2925H46.947L50.1661 45.1082V41.2925H51.8154V47.6132H50.1661L46.947 43.9578V47.6132H45.2974V41.2925Z" fill="white"/>
<path d="M57.7441 47.6132H59.3927V42.8122H61.8596V41.2925H55.3291V42.8122H57.7441V47.6132Z" fill="white"/>
<path d="M76.3271 41.2925H78.1735L80.1141 46.152H80.2813L82.2161 41.2925H84.0613L81.2743 47.6132H79.1208L76.3271 41.2925Z" fill="white"/>
<path d="M91.7593 41.2925H93.4598V46.1135H97.6313V47.6132H91.7593V41.2925Z" fill="white"/>
<path d="M84.8804 41.2925H90.5067V42.8218H86.5289V43.7084H90.134V45.1522H86.5289V46.0854H90.6842V47.6132H84.8804V41.2925Z" fill="white"/>
<path d="M117.944 41.2925H116.244V47.6132H117.944V41.2925Z" fill="white"/>
<path d="M122.737 47.6132C124.479 47.5292 125.892 46.1087 125.892 44.4151C125.892 42.7211 124.49 41.4002 122.737 41.2925H119.249V47.6132H122.737ZM122.737 46.1202H120.869V42.787H122.737C123.616 42.7833 124.308 43.59 124.308 44.424C124.308 45.258 123.63 46.0946 122.737 46.1202Z" fill="white"/>
<path d="M107.549 43.8552H104.383V45.2494H105.961V45.8167C105.89 45.8577 105.806 45.9069 105.72 45.9562C105.478 46.0897 104.945 46.2733 104.247 46.2733C103.095 46.2733 102.305 45.6128 102.305 44.4217C102.305 43.2394 103.212 42.5919 104.318 42.5919C104.989 42.5919 105.758 42.9223 106.169 43.548L107.462 42.7684C106.539 41.4445 105.587 41.0959 104.046 41.1111C102.185 41.127 100.76 42.4691 100.688 44.3403C100.607 46.5545 102.257 47.7045 104.292 47.7537C105.636 47.7833 106.342 47.1654 106.342 47.1654L106.564 47.6135H107.55V43.8552H107.549Z" fill="white"/>
<path d="M42.0849 46.7103L42.4625 47.6127H44.2215L41.5888 41.292H39.1392L36.522 47.6127H38.281L38.6578 46.7103H42.0849ZM40.267 42.805H40.4596L41.5089 45.3264H39.2353L40.267 42.805Z" fill="white"/>
<path d="M5.22266 47.6131H6.86201V46.2803H8.84095L9.57462 47.6131H11.3639L10.4107 45.9103C10.4107 45.9103 11.0906 45.4281 11.3005 45.0104C11.5108 44.5911 11.6048 44.0609 11.527 43.322C11.4486 42.5849 10.7101 41.638 9.83355 41.4378C9.25014 41.3083 8.91498 41.2913 8.7927 41.2905H5.22266V47.6131ZM6.86201 44.7266V42.8346C6.86201 42.8346 8.39566 42.8346 8.94923 42.8346C9.49986 42.8346 9.9131 43.1932 9.8969 43.8126C9.88143 44.3965 9.42619 44.7021 8.94923 44.7269H6.86201V44.7266Z" fill="white"/>
<path d="M62.9341 47.6132H64.5734V46.2819H66.5524L67.2864 47.6132H69.0735L68.121 45.9104C68.121 45.9104 68.8031 45.429 69.0112 45.012C69.2219 44.5912 69.3162 44.061 69.2388 43.3232C69.1582 42.5853 68.4197 41.6399 67.5431 41.4405C66.9608 41.3091 66.7583 41.2925 66.5034 41.2925H62.9341V47.6132ZM64.5734 44.7267V42.8362C64.5734 42.8362 66.1067 42.8362 66.6596 42.8362C67.2117 42.8362 67.6242 43.1955 67.6076 43.8142C67.5925 44.3966 67.1358 44.7022 66.661 44.727H64.5734V44.7267Z" fill="white"/>
<path d="M75.3085 46.7102L75.6852 47.6142H77.4443L74.8109 41.2935H72.3627L69.7451 47.6142H71.5042L71.8806 46.7102H75.3085ZM73.4908 42.8072H73.6842L74.7309 45.3282H72.4574L73.4908 42.8072Z" fill="white"/>
<path d="M111.794 47.7535C110.225 47.7442 108.762 46.6989 108.625 45.0101V41.2925H110.325V45.0512C110.356 45.7979 110.979 46.3333 111.785 46.3396C112.591 46.333 113.211 45.7975 113.241 45.0512V41.2925H114.943V45.0101C114.807 46.6989 113.363 47.7439 111.794 47.7535Z" fill="white"/>
<path d="M126.962 41.2925H132.587V42.8218H128.612V43.7084H132.215V45.1522H128.612V46.0854H132.766V47.6132H126.962V41.2925Z" fill="white"/>
<path d="M15.7979 47.7535C14.2292 47.7442 12.7648 46.6989 12.6289 45.0101V41.2925H14.3276V45.0512C14.3614 45.7979 14.982 46.3333 15.7872 46.3396C16.5934 46.333 17.2136 45.7975 17.2472 45.0512V41.2925H18.9466V45.0101C18.8114 46.6989 17.3661 47.7439 15.7979 47.7535Z" fill="white"/>
<path d="M25.8045 42.1233L25.0653 43.3496C25.0653 43.3496 24.2756 42.601 22.8466 42.601C21.8146 42.601 21.6319 42.927 21.6319 43.1191C21.6319 43.2974 21.7722 43.4351 22.1129 43.468C22.6772 43.5235 24.4197 43.697 24.9136 43.9542C25.4104 44.2088 25.9349 44.6776 25.9349 45.6178C25.9349 46.584 25.3961 47.7529 22.9173 47.7529C20.9137 47.7529 19.9067 46.6776 19.9067 46.6776L20.6264 45.3703C20.6264 45.3703 21.7107 46.319 23.026 46.319C24.3397 46.319 24.462 45.8473 24.462 45.5934C24.462 45.2748 23.7508 45.2256 23.0146 45.1686C22.4113 45.1209 21.7892 45.048 21.5446 44.9729C20.3855 44.6129 20.1509 43.922 20.1509 43.1979C20.1509 42.3357 20.5966 41.1121 22.875 41.1121C24.9103 41.1121 25.8045 42.1233 25.8045 42.1233Z" fill="white"/>
<path d="M32.5438 42.1233L31.8042 43.3496C31.8042 43.3496 31.0138 42.601 29.5844 42.601C28.5527 42.601 28.3704 42.927 28.3704 43.1191C28.3704 43.2974 28.5104 43.4351 28.8514 43.468C29.4146 43.5235 31.1567 43.697 31.6532 43.9542C32.1478 44.2088 32.6716 44.6776 32.6716 45.6178C32.6716 46.584 32.1335 47.7529 29.6555 47.7529C27.6519 47.7529 26.646 46.6776 26.646 46.6776L27.3653 45.3703C27.3653 45.3703 28.45 46.319 29.7641 46.319C31.0779 46.319 31.2002 45.8473 31.2002 45.5934C31.2002 45.2748 30.4875 45.2256 29.7531 45.1686C29.1487 45.1209 28.5262 45.048 28.2842 44.9729C27.1255 44.6129 26.8909 43.922 26.8909 43.1979C26.8909 42.3357 27.3355 41.1121 29.6131 41.1121C31.6495 41.1121 32.5438 42.1233 32.5438 42.1233Z" fill="white"/>
</svg>
